X: 1678
T: Bill Black's Hornpipe   #2
R: hornpipe, reel
%S: s:3 b:14(4+5+5)
B: O'Neill's 1850 #1678
O: J.O'Neill
Z: Compacted via repeats and multiple endings [JC]
M: 4/4
L: 1/8
K: G
d>c | B>GB>d g>dc>B | A>cb>g f>ed>c |[1,3 B>GB>d g>dB>G | (3ABG (3FGE D2 :|
[2,4 (3BdB G>B (3AcA F>A | G2G2G2 :: B>c | d>cB>A G>Bd>g | e2c2 c2c>d | e>dc>B A>ca>g |
| f2d>d d2e>f || (3ggg g>e (3fff f>d | e>fg>e d>cB>A | (3BdB G>B (3AcA F>A | G2G2G2 :|
